public/assets/icon_about.svg

<svg fill="none" height="13" viewBox="0 0 12 13" width="12" xmlns="http://www.w3.org/2000/svg"><g fill="#fff"><path d="m0 3.7424c0-.7245.588-1.3125 1.3125-1.3125h9.375c.7245 0 1.3125.588 1.3125 1.3125v6.375c0 .3481-.1383.6819-.3844.9281-.2462.2461-.58.3844-.9281.3844h-9.375c-.348097 0-.681936-.1383-.928078-.3844-.246141-.2462-.384422-.58-.384422-.9281zm1.3125-.1875c-.04973 0-.09742.01976-.13258.05492-.03517.03516-.05492.08285-.05492.13258v6.375c0 .1035.084.1875.1875.1875h9.375c.0497 0 .0974-.0198.1326-.0549.0351-.0352.0549-.0829.0549-.1326v-6.375c0-.04973-.0198-.09742-.0549-.13258-.0352-.03516-.0829-.05492-.1326-.05492z"/><path d="m4.5 8.84915v-3.83775c-.00011-.03327.00862-.06596.02532-.09473.01669-.02877.04073-.05259.06966-.069.02894-.01641.06171-.02483.09497-.0244.03326.00044.06581.00971.0943.02688l3.198 1.91925c.02764.01669.0505.04023.06636.06835.01587.02812.02421.05986.02421.09215 0 .03228-.00834.06402-.02421.09214-.01586.02812-.03872.05167-.06636.06836l-3.198 1.91925c-.02844.01713-.06091.0264-.09411.02687s-.06592-.00789-.09483-.02421-.05296-.04003-.06971-.0687c-.01675-.02866-.02558-.06126-.0256-.09446z"/></g></svg>

<svg width="12" height="13" viewBox="0 0 12 13" fill="none" xmlns="http://www.w3.org/2000/svg">
<path d="M0 3.7424C0 3.0179 0.588 2.4299 1.3125 2.4299H10.6875C11.412 2.4299 12 3.0179 12 3.7424V10.1174C12 10.4655 11.8617 10.7993 11.6156 11.0455C11.3694 11.2916 11.0356 11.4299 10.6875 11.4299H1.3125C0.964403 11.4299 0.630564 11.2916 0.384422 11.0455C0.138281 10.7993 0 10.4655 0 10.1174L0 3.7424ZM1.3125 3.5549C1.26277 3.5549 1.21508 3.57466 1.17992 3.60982C1.14475 3.64498 1.125 3.69267 1.125 3.7424V10.1174C1.125 10.2209 1.209 10.3049 1.3125 10.3049H10.6875C10.7372 10.3049 10.7849 10.2851 10.8201 10.25C10.8552 10.2148 10.875 10.1671 10.875 10.1174V3.7424C10.875 3.69267 10.8552 3.64498 10.8201 3.60982C10.7849 3.57466 10.7372 3.5549 10.6875 3.5549H1.3125Z" fill="white"/>
<path d="M4.5 8.84915V5.0114C4.49989 4.97813 4.50862 4.94544 4.52532 4.91667C4.54201 4.8879 4.56605 4.86408 4.59498 4.84767C4.62392 4.83126 4.65669 4.82284 4.68995 4.82327C4.72321 4.82371 4.75576 4.83298 4.78425 4.85015L7.98225 6.7694C8.00989 6.78609 8.03275 6.80963 8.04861 6.83775C8.06448 6.86587 8.07282 6.89761 8.07282 6.9299C8.07282 6.96218 8.06448 6.99392 8.04861 7.02204C8.03275 7.05016 8.00989 7.07371 7.98225 7.0904L4.78425 9.00965C4.75581 9.02678 4.72334 9.03605 4.69014 9.03652C4.65694 9.03699 4.62422 9.02863 4.59531 9.01231C4.5664 8.99599 4.54235 8.97228 4.5256 8.94361C4.50885 8.91495 4.50002 8.88235 4.5 8.84915Z" fill="white"/>
</svg>
